**harm	**harte	**timestamp	**phrase	**leadinstrument	**kern
*M4/4	*M4/4	*	*	*	*
*A-:	*A-:	*	*	*	*A-:
1r;	N	0	.	r	1r;
=1	=1	=1	=1	=1	=1
*>A2_intro	*>A2_intro	*>A2_intro	*>A2_intro	*>A2_intro	*>A2_intro
1r	N	0.325	newline	drums	1r
=2	=2	=2	=2	=2	=2
1I	A-:1	2.23	.	drums	1A- 1cc 1ee-
=3	=3	=3	=3	=3	=3
1I	A-:1	4.134	.	drums	1A- 1cc 1ee-
=4	=4	=4	=4	=4	=4
*>B_chorus	*>B_chorus	*>B_chorus	*>B_chorus	*>B_chorus	*>B_chorus
1I	A-:maj	6.039	newline	voice	1A- 1cc 1ee-
=5	=5	=5	=5	=5	=5
2-VIIc	G-:maj/5	7.923	.	voice	2g- 2b- 2D-
2IV	D-:maj	8.865	.	voice	2D- 2f 2a-
=6	=6	=6	=6	=6	=6
1I	A-:maj	9.807	.	voice	1A- 1cc 1ee-
=7	=7	=7	=7	=7	=7
2-VIIc	G-:maj/5	11.692	.	voice	2g- 2b- 2D-
2IV	D-:maj	12.634	.	voice	2D- 2f 2a-
=8	=8	=8	=8	=8	=8
1I	A-:maj	13.576	newline	voice	1A- 1cc 1ee-
=9	=9	=9	=9	=9	=9
2-VIIc	G-:maj/5	15.428	.	voice	2g- 2b- 2D-
2IV	D-:maj	16.354	.	voice	2D- 2f 2a-
=10	=10	=10	=10	=10	=10
1I	A-:maj	17.281	.	voice	1A- 1cc 1ee-
=11	=11	=11	=11	=11	=11
2-VIIc	G-:maj/5	19.133	.	voice	2g- 2b- 2D-
2IV	D-:maj	20.059	.	voice	2D- 2f 2a-
=12	=12	=12	=12	=12	=12
*>B_verse	*>B_verse	*>B_verse	*>B_verse	*>B_verse	*>B_verse
1I	A-:maj	20.985	newline	voice	1A- 1cc 1ee-
=13	=13	=13	=13	=13	=13
2-VIIc	G-:maj/5	22.828	.	voice	2g- 2b- 2D-
2IV	D-:maj	23.749	.	voice	2D- 2f 2a-
=14	=14	=14	=14	=14	=14
1I	A-:maj	24.67	.	voice	1A- 1cc 1ee-
=15	=15	=15	=15	=15	=15
2-VIIc	G-:maj/5	26.513	.	voice	2g- 2b- 2D-
2IV	D-:maj	27.434	.	voice	2D- 2f 2a-
=16	=16	=16	=16	=16	=16
1I	A-:maj	28.356	newline	voice	1A- 1cc 1ee-
=17	=17	=17	=17	=17	=17
2-VIIc	G-:maj/5	30.203	.	voice	2g- 2b- 2D-
2IV	D-:maj	31.127	.	voice	2D- 2f 2a-
=18	=18	=18	=18	=18	=18
1I	A-:maj	32.051	.	voice	1A- 1cc 1ee-
=19	=19	=19	=19	=19	=19
2-VIIc	G-:maj/5	33.898	.	voice	2g- 2b- 2D-
2IV	D-:maj	34.822	.	voice	2D- 2f 2a-
=20	=20	=20	=20	=20	=20
*>A_prechorus	*>A_prechorus	*>A_prechorus	*>A_prechorus	*>A_prechorus	*>A_prechorus
1I	A-:1	35.746	newline	voice	1A- 1cc 1ee-
=21	=21	=21	=21	=21	=21
1I	A-:1	37.581	.	voice	1A- 1cc 1ee-
=22	=22	=22	=22	=22	=22
1I	A-:1	39.417	.	voice	1A- 1cc 1ee-
=23	=23	=23	=23	=23	=23
1I	A-:1	41.252	.	voice	1A- 1cc 1ee-
=24	=24	=24	=24	=24	=24
*>B_chorus	*>B_chorus	*>B_chorus	*>B_chorus	*>B_chorus	*>B_chorus
1I	A-:maj	43.087	newline	voice	1A- 1cc 1ee-
=25	=25	=25	=25	=25	=25
2-VIIc	G-:maj/5	44.924	.	voice	2g- 2b- 2D-
2IV	D-:maj	45.843	.	voice	2D- 2f 2a-
=26	=26	=26	=26	=26	=26
1I	A-:maj	46.761	.	voice	1A- 1cc 1ee-
=27	=27	=27	=27	=27	=27
2-VIIc	G-:maj/5	48.599	.	voice	2g- 2b- 2D-
2IV	D-:maj	49.517	.	voice	2D- 2f 2a-
=28	=28	=28	=28	=28	=28
1I	A-:maj	50.436	newline	voice	1A- 1cc 1ee-
=29	=29	=29	=29	=29	=29
2-VIIc	G-:maj/5	52.293	.	voice	2g- 2b- 2D-
2IV	D-:maj	53.222	.	voice	2D- 2f 2a-
=30	=30	=30	=30	=30	=30
1I	A-:maj	54.151	.	voice	1A- 1cc 1ee-
=31	=31	=31	=31	=31	=31
2-VIIc	G-:maj/5	56.009	.	voice	2g- 2b- 2D-
2IV	D-:maj	56.938	.	voice	2D- 2f 2a-
=32	=32	=32	=32	=32	=32
*>C_bridge	*>C_bridge	*>C_bridge	*>C_bridge	*>C_bridge	*>C_bridge
1II7	B-:7	57.867	newline	voice	1B- 1dd 1ff 1aa-
=33	=33	=33	=33	=33	=33
1II7	B-:7	59.705	.	voice	1B- 1dd 1ff 1aa-
=34	=34	=34	=34	=34	=34
1V7	E-:7	61.542	.	voice	1E- 1g 1b- 1dd-
=35	=35	=35	=35	=35	=35
1V7	E-:7	63.38	.	voice	1E- 1g 1b- 1dd-
=36	=36	=36	=36	=36	=36
*>B_verse	*>B_verse	*>B_verse	*>B_verse	*>B_verse	*>B_verse
1I	A-:maj	65.218	newline	voice	1A- 1cc 1ee-
=37	=37	=37	=37	=37	=37
2-VIIc	G-:maj/5	67.076	.	voice	2g- 2b- 2D-
2IV	D-:maj	68.005	.	voice	2D- 2f 2a-
=38	=38	=38	=38	=38	=38
1I	A-:maj	68.934	.	voice	1A- 1cc 1ee-
=39	=39	=39	=39	=39	=39
2-VIIc	G-:maj/5	70.791	.	voice	2g- 2b- 2D-
2IV	D-:maj	71.72	.	voice	2D- 2f 2a-
=40	=40	=40	=40	=40	=40
1I	A-:maj	72.649	newline	voice	1A- 1cc 1ee-
=41	=41	=41	=41	=41	=41
2-VIIc	G-:maj/5	74.48	.	voice	2g- 2b- 2D-
2IV	D-:maj	75.396	.	voice	2D- 2f 2a-
=42	=42	=42	=42	=42	=42
1I	A-:maj	76.311	.	voice	1A- 1cc 1ee-
=43	=43	=43	=43	=43	=43
2-VIIc	G-:maj/5	78.142	.	voice	2g- 2b- 2D-
2IV	D-:maj	79.057	.	voice	2D- 2f 2a-
=44	=44	=44	=44	=44	=44
*>A_prechorus	*>A_prechorus	*>A_prechorus	*>A_prechorus	*>A_prechorus	*>A_prechorus
1I	A-:maj	79.973	newline	voice	1A- 1cc 1ee-
=45	=45	=45	=45	=45	=45
2-VIIc	G-:maj/5	81.832	.	voice	2g- 2b- 2D-
2IV	D-:maj	82.762	.	voice	2D- 2f 2a-
=46	=46	=46	=46	=46	=46
1I	A-:maj	83.691	.	voice	1A- 1cc 1ee-
=47	=47	=47	=47	=47	=47
2-VIIc	G-:maj/5	85.551	.	voice	2g- 2b- 2D-
2IV	D-:maj	86.48	.	voice	2D- 2f 2a-
=48	=48	=48	=48	=48	=48
*>B_chorus	*>B_chorus	*>B_chorus	*>B_chorus	*>B_chorus	*>B_chorus
1I	A-:maj	87.41	newline	voice	1A- 1cc 1ee-
=49	=49	=49	=49	=49	=49
2-VIIc	G-:maj/5	89.258	.	voice	2g- 2b- 2D-
2IV	D-:maj	90.182	.	voice	2D- 2f 2a-
=50	=50	=50	=50	=50	=50
1I	A-:maj	91.106	.	voice	1A- 1cc 1ee-
=51	=51	=51	=51	=51	=51
2-VIIc	G-:maj/5	92.954	.	voice	2g- 2b- 2D-
2IV	D-:maj	93.878	.	voice	2D- 2f 2a-
=52	=52	=52	=52	=52	=52
1I	A-:maj	94.802	newline	voice	1A- 1cc 1ee-
=53	=53	=53	=53	=53	=53
2-VIIc	G-:maj/5	96.659	.	voice	2g- 2b- 2D-
2IV	D-:maj	97.588	.	voice	2D- 2f 2a-
=54	=54	=54	=54	=54	=54
1I	A-:maj	98.517	.	voice	1A- 1cc 1ee-
=55	=55	=55	=55	=55	=55
2-VIIc	G-:maj/5	100.374	.	voice	2g- 2b- 2D-
2IV	D-:maj	101.303	.	voice	2D- 2f 2a-
=56	=56	=56	=56	=56	=56
*>C_bridge	*>C_bridge	*>C_bridge	*>C_bridge	*>C_bridge	*>C_bridge
1II7	B-:7	102.232	newline	voice	1B- 1dd 1ff 1aa-
=57	=57	=57	=57	=57	=57
1II7	B-:7	104.064	.	voice	1B- 1dd 1ff 1aa-
=58	=58	=58	=58	=58	=58
1V7	E-:7	105.896	.	voice	1E- 1g 1b- 1dd-
=59	=59	=59	=59	=59	=59
1V7	E-:7	107.728	.	voice	1E- 1g 1b- 1dd-
=60	=60	=60	=60	=60	=60
*>B_verse	*>B_verse	*>B_verse	*>B_verse	*>B_verse	*>B_verse
1I	A-:maj	109.56	newline	voice	1A- 1cc 1ee-
=61	=61	=61	=61	=61	=61
2-VIIc	G-:maj/5	111.427	.	voice	2g- 2b- 2D-
2IV	D-:maj	112.361	.	voice	2D- 2f 2a-
=62	=62	=62	=62	=62	=62
1I	A-:maj	113.295	.	voice	1A- 1cc 1ee-
=63	=63	=63	=63	=63	=63
2-VIIc	G-:maj/5	115.162	.	voice	2g- 2b- 2D-
2IV	D-:maj	116.095	.	voice	2D- 2f 2a-
=64	=64	=64	=64	=64	=64
1I	A-:maj	117.029	newline	voice	1A- 1cc 1ee-
=65	=65	=65	=65	=65	=65
2-VIIc	G-:maj/5	118.865	.	voice	2g- 2b- 2D-
2IV	D-:maj	119.783	.	voice	2D- 2f 2a-
=66	=66	=66	=66	=66	=66
1I	A-:maj	120.701	.	voice	1A- 1cc 1ee-
=67	=67	=67	=67	=67	=67
2-VIIc	G-:maj/5	122.538	.	voice	2g- 2b- 2D-
2IV	D-:maj	123.456	.	voice	2D- 2f 2a-
=68	=68	=68	=68	=68	=68
*>A_prechorus	*>A_prechorus	*>A_prechorus	*>A_prechorus	*>A_prechorus	*>A_prechorus
1I	A-:maj	124.374	newline	voice	1A- 1cc 1ee-
=69	=69	=69	=69	=69	=69
2-VIIc	G-:maj/5	126.237	.	voice	2g- 2b- 2D-
2IV	D-:maj	127.168	.	voice	2D- 2f 2a-
=70	=70	=70	=70	=70	=70
1I	A-:maj	128.1	.	voice	1A- 1cc 1ee-
=71	=71	=71	=71	=71	=71
2-VIIc	G-:maj/5	129.963	.	voice	2g- 2b- 2D-
2IV	D-:maj	130.894	.	voice	2D- 2f 2a-
=72	=72	=72	=72	=72	=72
*>B_chorus	*>B_chorus	*>B_chorus	*>B_chorus	*>B_chorus	*>B_chorus
1I	A-:maj	131.826	newline	voice	1A- 1cc 1ee-
=73	=73	=73	=73	=73	=73
2-VIIc	G-:maj/5	133.689	.	voice	2g- 2b- 2D-
2IV	D-:maj	134.621	.	voice	2D- 2f 2a-
=74	=74	=74	=74	=74	=74
1I	A-:maj	135.552	.	voice	1A- 1cc 1ee-
=75	=75	=75	=75	=75	=75
2-VIIc	G-:maj/5	137.415	.	voice	2g- 2b- 2D-
2IV	D-:maj	138.347	.	voice	2D- 2f 2a-
=76	=76	=76	=76	=76	=76
1I	A-:maj	139.279	newline	voice	1A- 1cc 1ee-
=77	=77	=77	=77	=77	=77
2-VIIc	G-:maj/5	141.14	.	voice	2g- 2b- 2D-
2IV	D-:maj	142.07	.	voice	2D- 2f 2a-
=78	=78	=78	=78	=78	=78
1I	A-:maj	143.001	.	voice	1A- 1cc 1ee-
=79	=79	=79	=79	=79	=79
2-VIIc	G-:maj/5	144.862	.	voice	2g- 2b- 2D-
2IV	D-:maj	145.793	.	voice	2D- 2f 2a-
=80	=80	=80	=80	=80	=80
*>C_bridge	*>C_bridge	*>C_bridge	*>C_bridge	*>C_bridge	*>C_bridge
1II7	B-:7	146.724	newline	voice	1B- 1dd 1ff 1aa-
=81	=81	=81	=81	=81	=81
1II7	B-:7	148.575	.	voice	1B- 1dd 1ff 1aa-
=82	=82	=82	=82	=82	=82
1V7	E-:7	150.425	.	voice	1E- 1g 1b- 1dd-
=83	=83	=83	=83	=83	=83
1V7	E-:7	152.276	.	voice	1E- 1g 1b- 1dd-
=84	=84	=84	=84	=84	=84
*>B_chorus	*>B_chorus	*>B_chorus	*>B_chorus	*>B_chorus	*>B_chorus
1I	A-:maj	154.127	newline	voice	1A- 1cc 1ee-
=85	=85	=85	=85	=85	=85
2-VIIc	G-:maj/5	155.999	.	voice	2g- 2b- 2D-
2IV	D-:maj	156.935	.	voice	2D- 2f 2a-
=86	=86	=86	=86	=86	=86
1I	A-:maj	157.87	.	voice	1A- 1cc 1ee-
=87	=87	=87	=87	=87	=87
2-VIIc	G-:maj/5	159.742	.	voice	2g- 2b- 2D-
2IV	D-:maj	160.678	.	voice	2D- 2f 2a-
=88	=88	=88	=88	=88	=88
1I	A-:maj	161.613	newline	voice	1A- 1cc 1ee-
=89	=89	=89	=89	=89	=89
2-VIIc	G-:maj/5	163.489	.	voice	2g- 2b- 2D-
2IV	D-:maj	164.427	.	voice	2D- 2f 2a-
=90	=90	=90	=90	=90	=90
1I	A-:maj	165.364	.	voice	1A- 1cc 1ee-
=91	=91	=91	=91	=91	=91
2-VIIc	G-:maj/5	167.24	.	voice	2g- 2b- 2D-
2IV	D-:maj	168.177	.	voice	2D- 2f 2a-
=92	=92	=92	=92	=92	=92
*>_fadeout	*>_fadeout	*>_fadeout	*>_fadeout	*>_fadeout	*>_fadeout
1I	A-:maj	169.115	newline	voice	1A- 1cc 1ee-
=93	=93	=93	=93	=93	=93
2-VIIc	G-:maj/5	170.618	.	voice	2g- 2b- 2D-
2IV	D-:maj	171.369	.	voice	2D- 2f 2a-
=94	=94	=94	=94	=94	=94
1I	A-:maj	172.12	.	voice	1A- 1cc 1ee-
=95	=95	=95	=95	=95	=95
2-VIIc	G-:maj/5	173.622	.	voice	2g- 2b- 2D-
2IV	D-:maj	174.374	.	voice	2D- 2f 2a-
1r;	N	175.125	.	r	1r;
1r;	N	178.782	.	r	1r;
*-	*-	*-	*-	*-	*-
!!!OTL: Nowhere To Run
!!!COC: Martha & The Vandellas
!!!BillboardChartDate: 1965/03/27
!!!BillboardPeak: 8
!!!BillboardWeeksOnChart: 11
!!!SampleTargetRank: 14
!!!SampleActualRank: 12
!!!SampleID#: 0074
!!!RDF**harmony: **recip + pitch class of root + harmonic quality
!!!RDF**harte: Chris Harte's syntax, used by MIREX
!!!RDF**phrase: newline = linebreak in original McGill transcription
!!!RDF**timestamp: McGill audio timestamp in seconds
!!!RDF**leadinstrument: original McGill primary instrumentation annotation
!!!RDT: 2017/01/12/
!!!ENC: Nathaniel Condit-Schultz
!!!EST: Awating manual error checking and editing.
